X: 150
T: La Galatea
%R: jig
B: Chas & Sam Thompson "Twenty Four Country Dances for the Year 1782", London 1782, p.75 #2
F: http://www.vwml.org/browse/browse-collections-dance-tune-books/browse-thompsons1782
Z: 2014 John Chambers <jc:trillian.mit.edu> (added dance description)
M: 6/8
L: 1/8
K: E
% - - - - - - - - - - - - - - - - - - - - - - - - - - - - -
|:\
!f!e2e ege | B2b bge | c2a afd | ege Bcd |\
   e2e ege | d2b bge | c2a afd | e3- e3 :|
!p!.B.G.G .A.F.F | Eee dff | egg gfe | daf dfd |\
   .B.G.G .A.F.F | Eee dff | egg gfe | bfd B3 |
!f!e2e ege | B2b bge | c2a afd | ege Bcd |\
   e2e ege | B2b bge | c2a afd | e3 E3 |]
% - - - - - - - - - - Dance description - - - - - - - - - -
%%begintext align
%% Turn your Part.r half round with the right Hand, back
%% again with the Left .|. lead down the middle up again &
%% cast of :|. All.d with your Part.r .|. right & left at top :|:
%%endtext

%%sep 1 1 500
%%sep 1 1 500
